svgs/sharp-regular/car-side.svg

<svg xmlns="http://www.w3.org/2000/svg" viewBox="0 0 640 512"><!--! Font Awesome Pro 6.6.0 by @fontawesome - https://fontawesome.com License - https://fontawesome.com/license (Commercial License) Copyright 2024 Fonticons, Inc. --><path d="M111.8 32L128 32l256 0 11.5 0 7.2 9L523.5 192l68.5 0 48 0 0 48 0 112 0 48-48 0-17.3 0c-7.6 45.4-47.1 80-94.7 80s-87.1-34.6-94.7-80l-130.7 0c-7.6 45.4-47.1 80-94.7 80s-87.1-34.6-94.7-80L48 400 0 400l0-48L0 240l0-48 47.8 0 58-144.9 6-15.1zM389.5 352c13.2-37.3 48.7-64 90.5-64s77.4 26.7 90.5 64l21.5 0 0-112L48 240l0 112 21.5 0c13.2-37.3 48.7-64 90.5-64s77.4 26.7 90.5 64l138.9 0zm45.3 48a48 48 0 1 0 90.5-32 48 48 0 1 0 -90.5 32zM208 384a48 48 0 1 0 -96 0 48 48 0 1 0 96 0zM99.4 192L224 192l0-16 0-80 0-16-79.8 0L99.4 192zM272 192l190.1 0L372.5 80 272 80l0 16 0 80 0 16z"/></svg>

<svg xmlns="http://www.w3.org/2000/svg" viewBox="0 0 640 512"><!--! Font Awesome Pro 6.4.2 by @fontawesome - https://fontawesome.com License - https://fontawesome.com/license (Commercial License) Copyright 2023 Fonticons, Inc. --><path d="M111.8 32H128 384h11.5l7.2 9L523.5 192H592h48v48V352v48H592 574.7c-7.6 45.4-47.1 80-94.7 80s-87.1-34.6-94.7-80H254.7c-7.6 45.4-47.1 80-94.7 80s-87.1-34.6-94.7-80H48 0V352 240 192H47.8l58-144.9 6-15.1zM389.5 352c13.2-37.3 48.7-64 90.5-64s77.4 26.7 90.5 64H592V240H48V352H69.5c13.2-37.3 48.7-64 90.5-64s77.4 26.7 90.5 64H389.5zm45.3 48a48 48 0 1 0 90.5-32 48 48 0 1 0 -90.5 32zM208 384a48 48 0 1 0 -96 0 48 48 0 1 0 96 0zM99.4 192H224V176 96 80H144.2L99.4 192zM272 192H462.1L372.5 80H272V96v80 16z"/></svg>
